X: 27
T: Lark In The Morning, The
Z: chansherly212
S: https://thesession.org/tunes/62#setting53928
R: jig
M: 6/8
L: 1/8
K: Dmaj
|:"D"AFA AFA|"G"BGB BGB|"D"AFA Ade|"D"fed "G"BdB|
"D"AFA AFA|"G"BGB BGB|"D"def "A"afe|"Bm"fdB "G"BAB:|
|:"D"def afa|"G"baf afe|"D"def "A"afe|"Bm"fdB "G"BAB|
"D"def afa|"G"baf "D"a2f|"G"gag "D"fgf|"Em"edB "G"BAB:|
|:"D"d2f fef|fef fef|d2f fef|"Em"edB "G"BAB|
"D"d2f fef|fef fef|"G"gag "D"fgf|"Em"edB "G"BAB:|
|:"D"Add fdd|ede fdB|Add fdd|"Em"edB "G"BdB|
"D"Add fdd|"A"ede "D"fef|"G"gag "D"fgf|"Em"edB "G"BAB:|

